X:305568018185862
T:4-4-4-2-6-3-12-8-5-9-12-12-5-11-10-2
%%setfont-1 Courier-Bold 8
T:$1K.516f::69:95:158:41:80:46:106:127:90:88:108:92:67:59:149:14::$0
T:$1Perm. No.: 305568018185862$0
M:3/8
L:1/8
Q:1/8=111
%%staves [1 2]
V:1 clef=treble
V:2 clef=bass
K:C
%1
[V:1]|: (gec) |\
[V:2]|: [C,2E,2]z |\
%2
[V:1] gec |\
[V:2] E,2 z & C,2 x |\
%3
[V:1] Bd/B/A/G/ |\
[V:2] G,2z |\
%4
[V:1] c/B/c/e/G |\
[V:2] [E,2C,2]z |\
%5
[V:1] d!turn!A^f |\
[V:2] C,2z |\
%6
[V:1] gb/g/d/B/ |\
[V:2] [D,2B,,2]z |\
%7
[V:1] Ad/c/B/A/ \
[V:2] C,D,D,, \
%8a
[V:1]|1 [g2d2B2G2]z :|2
[V:2]|1 G,,G,/=F,/E,/D,/ :|2
%8b
[V:1] [g2d2B2G2]z |:\
[V:2] G,,B,/G,/^F,/E,/ |:\
%9
[V:1] ^f/a/d'/a/f/a/ |\
[V:2] [A,2C,2][A,C,] |\
%10
[V:1] g/d/g/b/g/d/ |\
[V:2] [D,2B,,2][D,B,,] |\
%11
[V:1] (egc') |\
[V:2] [G,2C,2][E,C,] |\
%12
[V:1] [dB]g/b/d |\
[V:2] [G,2G,,2]G, |\
%13
[V:1] c/B/c/e/G/c/ |\
[V:2] [E,2C,2][G,E,] |\
%14
[V:1] gce |\
[V:2] [E,/C,/]G,/[E,/C,/]G,/[E,/C,/]G,/ |\
%15
[V:1] f/d/AB |\
[V:2] F,2G, |\
%16
[V:1] c2z :|]
[V:2] C,G,,C,, :|]
